X:747
T:Newbyth House
R:Reel
B:The Athole Collection
M:C|
L:1/8
K:E Minor
e|~B2 EF GABG|~F2 DF dFAF|~B2 EF GBdB|ADFA BE E:|
F|EeeB defd|BddF AFDF|Eeeg fded|BAdF BEEF|Eege ^dBeB|
^deBd FDAF|GBEB eBdB|ADFA BE E||

